_site/images/homepage/verification-micro.svg

<svg fill="none" height="40" viewBox="0 0 40 40" width="40" xmlns="http://www.w3.org/2000/svg"><path d="m32.5 40h-25c-4.1425 0-7.5-3.3575-7.5-7.5v-25c0-4.1425 3.3575-7.5 7.5-7.5h25c4.1425 0 7.5 3.3575 7.5 7.5v25c0 4.1425-3.3575 7.5-7.5 7.5z" fill="#65a2fd"/><path clip-rule="evenodd" d="m24.1066 21.7886 3.0419 3.0428c.469.4673.469 1.2258-.0018 1.6931-.4689.4673-1.2272.4673-1.6943 0l-3.0419-3.0428c-.9469.6272-2.0788.9975-3.297.9975-3.3006 0-5.9885-2.687-5.9885-5.9905s2.6897-5.9887 5.9903-5.9887 5.9885 2.687 5.9885 5.9905c0 1.2186-.3701 2.3509-.9972 3.2981zm-8.4816-3.0386c0 2.0681 1.5417 3.75 3.4375 3.75s3.4392-1.6819 3.4375-3.75c0-2.0681-1.5417-3.75-3.4375-3.75s-3.4375 1.6819-3.4375 3.75z" fill="#fcfcfc" fill-rule="evenodd"/></svg>

<svg width="40" height="40" viewBox="0 0 40 40" fill="none" xmlns="http://www.w3.org/2000/svg">
<path d="M32.5 40H7.5C3.3575 40 0 36.6425 0 32.5V7.5C0 3.3575 3.3575 0 7.5 0H32.5C36.6425 0 40 3.3575 40 7.5V32.5C40 36.6425 36.6425 40 32.5 40Z" fill="#65A2FD"/>
<path fill-rule="evenodd" clip-rule="evenodd" d="M24.1066 21.7886L27.1485 24.8314C27.6175 25.2987 27.6175 26.0572 27.1467 26.5245C26.6778 26.9918 25.9195 26.9918 25.4524 26.5245L22.4105 23.4817C21.4636 24.1089 20.3317 24.4792 19.1135 24.4792C15.8129 24.4792 13.125 21.7922 13.125 18.4887C13.125 15.1852 15.8147 12.5 19.1153 12.5C22.4159 12.5 25.1038 15.187 25.1038 18.4905C25.1038 19.7091 24.7337 20.8414 24.1066 21.7886ZM15.625 18.75C15.625 20.8181 17.1667 22.5 19.0625 22.5C20.9583 22.5 22.5017 20.8181 22.5 18.75C22.5 16.6819 20.9583 15 19.0625 15C17.1667 15 15.625 16.6819 15.625 18.75Z" fill="#FCFCFC"/>
</svg>
